X:1
T:Jesu der du meine Seele+3
T:Ach! Ich bin ein Kind der Sünden
T:BWV 78 Jesu der du meine Seele, Number 3
T:TENOR=Ach! ich bin ein Kind der Sünden=REC More Bach at http://bach.ejmaurath.com
T:Johann Sebastian Bach (1685--1750)
T:Composed 1724
T:Sequenced by Edward J. Maurath
T:Sequenced by Edward J. Maurath
T:Sequenced by Edward J. Maurath
T:Sequenced by Edward J. Maurath
C:Johann Sebastian Bach (1685--1750)
Z:Composed 1724
Z:Sequenced by Edward J. Maurath
%%score 1 2 { 3 | 4 } { 5 | 6 }
L:1/8
Q:1/4=48
M:4/4
K:Bb
V:1 tenor nm="Oboe as\nTenore " snm="TEN"
V:2 bass nm="Violoncello\n(Continuo) " snm="VCL"
V:3 treble nm="Organo  \n(Continuo)" snm="ORG"
V:4 bass 
V:5 treble nm="Cembalo \n(Continuo)" snm="CEM"
V:6 bass 
V:1
"^48" ^C2 z G, =EFGA, | B,B, E z/ D/ _G,G,A_G | E2 z A, CC_GA, | z _G,/=G,/ A,_G, _A,A, z =E, | %4
 D>=E FD F,F,F,=E, | C,2 z/ =E/G/E/ ^CCDE | FF z/ D/D/=B,/ ^G,2 F2 | z =E G^C/D/ _FF z2 | %8
 z2 EE z C/A,/ AC | =B,B, z B,/C/ DDDF | G,G, z/ D/_A/G/ EDFE | DC z2 z G,E,F, | %12
 G,G,G,_A, B,E, z/ B,/_D/C/ | C2 z C _GF=EF | FC z2 z2 z C | _A,B,CF, CCC_D | E2 z F _GGGF | %17
 _DD z/ F,/F,/F,/ _CCCB, | G,G, z G, =EEEF | GB, _D z/ C/ _A,2 z _A/F/ | _DDF^C =B, z z =D | %21
 GC z C[Q:1/4=42]"^42" F_A,>G,_G,/=G,/ | G,[Q:1/4=36]"^36"F>ED/EC<_DC/=B,/C/ | C/G,/G, z2 z4 |] %24
V:2
 G,8 | _D,2 C,6 | _G,,2 E,6- | E,4 D,4 | ^G,,8 | A,,4 B,,4 | _C,8 | B,,4 A,,4 | _G,,8 | _A,,8 | %10
 =B,,4 C,2 _A,,2 | z2 G,,2 C,4 | B,,4 G,,4 | _F,2 E,2 A,,2 _D,2 | z2 C,2 F,,4- | F,,4 E,4 | A,,8 | %17
 B,,4 D,4 | ^C,4 B,,4 | =E,,4 F,,F,,F,,F,, | F,,F,,F,,F,, F,,F,,F,,F,, | E,,E,,E,E, D,D,C,C, | %22
 =B,,B,,C,C, _A,,A,,_G,,G,, | G,,G,,G,,G,, C,,4 |] %24
V:3
 [^C=E]8 | z8 | C2 [A,C]6 | [A,CE]4 [F_A]4 | [DF]8 | [C=E]4 [B,^CE]4 | D8 | =E4 [^CE]4 | [CE]8 | %9
 [DF=B]8 | [DG]4 [EG]2 [D=B]2 | z2 [G=B]2 [Ec]4 | E4 E4 | C2 C2 [CE]2 [^C=E]2 | z2 =E2 [CF]4- | %15
 [CF]4 [CF]4 | [CE]8 | [_DF]4 [=DF]4 | [=EG]4 [^CEG]4 | _D4 CCCC | _DDDD =DDDD | %21
 [G,C][G,C][G,C][G,C] F[=B,F] F/G/_G/=G/ | G,F>ED/EC<_DC/=B,/C/ | [CE][CE][=B,D][B,D] [G,CE]4 |] %24
V:4
 [G,B,]8 | [_D,B,]2 [C,_G,A,E]2 [G,D]4 | [_G,,E,]2 [E,-_G,]6 | [E,_G,]4 [D,=B,]4 | [^G,,=B,]8 | %5
 A,,4 B,,4 | [_C,F,_A,]8 | [B,,G,]4 A,,4 | [_G,,A,]8 | ^G,,8 | =B,,4 C,2 [_A,,F,]2 | %11
 z2 [G,,F,]2 [C,G,]4 | [B,,G,]4 [G,,B,]4 | [=E,G,]2 [_E,_G,A,]2 [A,,G,]2 [_D,B,]2 | %14
 z2 [C,G,B,]2 [F,,_A,]4- | [F,,A,]4 [E,=A,]4 | [A,,_G,]8 | B,,4 [D,_A,]4 | [^C,B,]4 B,,4 | %19
 [=E,,G,B,]4 [F,,_A,][F,,A,][F,,A,][F,,A,] | %20
 [F,,B,][F,,B,][F,,B,][F,,B,] [F,,^G,=B,][F,,G,B,][F,,G,B,][F,,G,B,] | %21
 E,,E,,E,E, [D,A,][D,_A,]C,C, | =B,,B,,C,C, _A,,A,,_G,,G,, | G,,G,,G,,G,, C,,4 |] %24
V:5
 [^C=E]8 | z8 | C2 [A,C]6 | [A,CE]4 [F_A]4 | [DF]8 | [C=E]4 [B,^CE]4 | D8 | =E4 [^CE]4 | [CE]8 | %9
 [DF=B]8 | [DG]4 [EG]2 [D=B]2 | z2 [G=B]2 [Ec]4 | E4 E4 | C2 C2 [CE]2 [^C=E]2 | z2 =E2 [CF]4- | %15
 [CF]4 [CF]4 | [CE]8 | [_DF]4 [=DF]4 | [=EG]4 [^CEG]4 | _D4 CCCC | _DDDD =DDDD | %21
 [G,C][G,C][G,C][G,C] F[=B,F] F/G/_G/=G/ | G,F>ED/EC<_DC/=B,/C/ | [CE][CE][=B,D][B,D] [G,CE]4 |] %24
V:6
 [G,B,]8 | [_D,B,]2 [C,_G,A,E]2 [G,D]4 | [_G,,E,]2 [E,-_G,]6 | [E,_G,]4 [D,=B,]4 | [^G,,=B,]8 | %5
 A,,4 B,,4 | [_C,F,_A,]8 | [B,,G,]4 A,,4 | [_G,,A,]8 | ^G,,8 | =B,,4 C,2 [_A,,F,]2 | %11
 z2 [G,,F,]2 [C,G,]4 | [B,,G,]4 [G,,B,]4 | [=E,G,]2 [_E,_G,A,]2 [A,,G,]2 [_D,B,]2 | %14
 z2 [C,G,B,]2 [F,,_A,]4- | [F,,A,]4 [E,=A,]4 | [A,,_G,]8 | B,,4 [D,_A,]4 | [^C,B,]4 B,,4 | %19
 [=E,,G,B,]4 [F,,_A,][F,,A,][F,,A,][F,,A,] | %20
 [F,,B,][F,,B,][F,,B,][F,,B,] [F,,^G,=B,][F,,G,B,][F,,G,B,][F,,G,B,] | %21
 E,,E,,E,E, [D,A,][D,_A,]C,C, | =B,,B,,C,C, _A,,A,,_G,,G,, | G,,G,,G,,G,, C,,4 |] %24

